svg/undo.svg

<svg xmlns="http://www.w3.org/2000/svg" viewBox="0 0 32 32" enable-background="new 0 0 32 32"><path d="M 12.78125 5.28125 L 4.78125 13.28125 L 4.09375 14 L 4.78125 14.71875 L 12.78125 22.71875 L 14.21875 21.28125 L 7.9375 15 L 21 15 C 23.754545 15 26 17.245455 26 20 L 26 27 L 28 27 L 28 20 C 28 16.154545 24.845455 13 21 13 L 7.9375 13 L 14.21875 6.71875 L 12.78125 5.28125 z" color="#000" overflow="visible" enable-background="accumulate"/></svg>

<svg xmlns="http://www.w3.org/2000/svg" viewBox="0 0 32 32"><path d="M12.78 5.28l-8 8-.686.72.687.72 8 8 1.44-1.44L7.936 15H21c2.755 0 5 2.245 5 5v7h2v-7c0-3.845-3.155-7-7-7H7.937l6.282-6.28-1.44-1.44z"/></svg>
